mono-glyphs/hd-w.svg

<svg xmlns="http://www.w3.org/2000/svg" width="1024" height="1024" fill="none" viewBox="0 0 1024 1024">
  <path fill="#fff" d="M125.5 704c-16.667 0-32.583-3.417-47.75-10.25-15.167-6.833-28.5-16-40-27.5s-20.667-24.833-27.5-40C3.417 611.083 0 595.167 0 578.5v-133c0-16.667 3.417-32.583 10.25-47.75 6.833-15.167 16-28.5 27.5-40s24.833-20.667 40-27.5C92.917 323.417 108.833 320 125.5 320h773c16.667 0 32.583 3.417 47.75 10.25 15.167 6.833 28.5 16 40 27.5s20.67 24.833 27.5 40c6.83 15.167 10.25 31.083 10.25 47.75v133c0 16.667-3.42 32.583-10.25 47.75-6.83 15.167-16 28.5-27.5 40s-24.833 20.667-40 27.5C931.083 700.583 915.167 704 898.5 704h-773ZM896 640c9 0 17.333-1.667 25-5 7.667-3.333 14.417-7.917 20.25-13.75S951.667 608.667 955 601s5-16 5-25V448c0-8.667-1.667-16.917-5-24.75-3.333-7.833-7.917-14.667-13.75-20.5s-12.667-10.417-20.5-13.75-16.083-5-24.75-5H128c-9 0-17.333 1.667-25 5-7.667 3.333-14.417 7.917-20.25 13.75S72.333 415.333 69 423s-5 16-5 25v128c0 9 1.667 17.417 5 25.25 3.333 7.833 7.833 14.583 13.5 20.25s12.417 10.167 20.25 13.5 16.25 5 25.25 5h768ZM736 496c0-13.333 4.667-24.667 14-34 9.333-9.333 20.667-14 34-14 13.333 0 24.667 4.667 34 14 9.333 9.333 14 20.667 14 34 0 13.333-4.667 24.667-14 34-9.333 9.333-20.667 14-34 14-13.333 0-24.667-4.667-34-14-9.333-9.333-14-20.667-14-34Z"/>
</svg>

<svg width="1024" height="1024" viewBox="0 0 1024 1024" fill="none" xmlns="http://www.w3.org/2000/svg">
<g clip-path="url(#clip0_32_92)">
<mask id="mask0_32_92" style="mask-type:luminance" maskUnits="userSpaceOnUse" x="0" y="320" width="1024" height="384">
<path d="M1024 320H0V704H1024V320Z" fill="white"/>
</mask>
<g mask="url(#mask0_32_92)">
<path d="M125.5 704C108.833 704 92.9167 700.583 77.75 693.75C62.5833 686.917 49.25 677.75 37.75 666.25C26.25 654.75 17.0833 641.417 10.25 626.25C3.41667 611.083 0 595.167 0 578.5V445.5C0 428.833 3.41667 412.917 10.25 397.75C17.0833 382.583 26.25 369.25 37.75 357.75C49.25 346.25 62.5833 337.083 77.75 330.25C92.9167 323.417 108.833 320 125.5 320H898.5C915.167 320 931.083 323.417 946.25 330.25C961.417 337.083 974.75 346.25 986.25 357.75C997.75 369.25 1006.92 382.583 1013.75 397.75C1020.58 412.917 1024 428.833 1024 445.5V578.5C1024 595.167 1020.58 611.083 1013.75 626.25C1006.92 641.417 997.75 654.75 986.25 666.25C974.75 677.75 961.417 686.917 946.25 693.75C931.083 700.583 915.167 704 898.5 704H125.5ZM896 640C905 640 913.333 638.333 921 635C928.667 631.667 935.417 627.083 941.25 621.25C947.083 615.417 951.667 608.667 955 601C958.333 593.333 960 585 960 576V448C960 439.333 958.333 431.083 955 423.25C951.667 415.417 947.083 408.583 941.25 402.75C935.417 396.917 928.583 392.333 920.75 389C912.917 385.667 904.667 384 896 384H128C119 384 110.667 385.667 103 389C95.3333 392.333 88.5833 396.917 82.75 402.75C76.9167 408.583 72.3333 415.333 69 423C65.6667 430.667 64 439 64 448V576C64 585 65.6667 593.417 69 601.25C72.3333 609.083 76.8333 615.833 82.5 621.5C88.1667 627.167 94.9167 631.667 102.75 635C110.583 638.333 119 640 128 640H896ZM736 496C736 482.667 740.667 471.333 750 462C759.333 452.667 770.667 448 784 448C797.333 448 808.667 452.667 818 462C827.333 471.333 832 482.667 832 496C832 509.333 827.333 520.667 818 530C808.667 539.333 797.333 544 784 544C770.667 544 759.333 539.333 750 530C740.667 520.667 736 509.333 736 496Z" fill="white"/>
</g>
</g>
<defs>
<clipPath id="clip0_32_92">
<rect width="1024" height="384" fill="white" transform="translate(0 320)"/>
</clipPath>
</defs>
</svg>
